src/images/svg/custom/google-40.svg

<svg width="40" height="40" viewBox="0 0 40 40" fill="none" xmlns="http://www.w3.org/2000/svg">
<rect width="40" height="40" rx="4" fill="#F2F3F4"/>
<path d="M29.9991 20.234C29.9991 19.5484 29.9361 18.8628 29.8157 18.1885H20.2026V22.0547H25.6942C25.4649 23.291 24.7312 24.3812 23.6592 25.0724L26.9553 27.5844C28.8871 25.8423 29.9991 23.2798 29.9991 20.234Z" fill="#3E82F1"/>
<path d="M23.6607 25.0737C22.7492 25.675 21.5798 26.029 20.2041 26.029C17.5443 26.029 15.2972 24.2701 14.4947 21.9043L11.084 24.4949C12.8151 27.8723 16.3462 30.0077 20.2041 30.0021C22.9613 30.0021 25.2714 29.1086 26.9567 27.58L23.6607 25.0737Z" fill="#32A753"/>
<path d="M14.4941 18.1033L11.0834 15.5127C9.63887 18.3393 9.63887 21.6717 11.0834 24.4984L14.4941 21.9077C14.0699 20.6714 14.0699 19.334 14.4941 18.1033Z" fill="#F9BB00"/>
<path d="M20.2041 10C16.3462 10 12.8151 12.1354 11.084 15.5128L14.4947 18.1034C15.2972 15.7376 17.5443 13.9786 20.2041 13.9786C21.7002 13.9786 23.0473 14.4844 24.102 15.4734L27.0312 12.6019C25.2657 10.989 22.9556 10 20.2041 10Z" fill="#E74133"/>
</svg>

<svg width="40" height="40" fill="none" xmlns="http://www.w3.org/2000/svg"><rect width="40" height="40" rx="4" fill="#F2F3F4"/><path d="M30 20.234c0-.686-.064-1.371-.184-2.046h-9.613v3.867h5.491a4.589 4.589 0 0 1-2.035 3.017l3.296 2.512C28.887 25.842 30 23.28 30 20.234Z" fill="#3E82F1"/><path d="M23.66 25.074c-.91.601-2.08.955-3.456.955-2.66 0-4.907-1.759-5.71-4.125l-3.41 2.59c1.731 3.378 5.262 5.514 9.12 5.508 2.757 0 5.067-.893 6.753-2.422l-3.296-2.506Z" fill="#32A753"/><path d="m14.494 18.103-3.41-2.59a9.858 9.858 0 0 0 0 8.985l3.41-2.59a5.846 5.846 0 0 1 0-3.805Z" fill="#F9BB00"/><path d="M20.204 10c-3.858 0-7.389 2.135-9.12 5.513l3.41 2.59c.803-2.365 3.05-4.124 5.71-4.124 1.496 0 2.843.505 3.898 1.494l2.93-2.871C25.265 10.989 22.955 10 20.203 10Z" fill="#E74133"/></svg>
